korla/apps/scalable/preferences-desktop-screensaver.svg

<!DOCTYPE svg  PUBLIC '-//W3C//DTD SVG 1.1//EN'  'http://www.w3.org/Graphics/SVG/1.1/DTD/svg11.dtd'>
<svg style="clip-rule:evenodd;fill-rule:evenodd;stroke-linejoin:round;stroke-miterlimit:1.41421" version="1.1" viewBox="0 0 48 48" xmlns="http://www.w3.org/2000/svg">
 <g transform="matrix(1.2,0,0,1.2,3.17686,-1208.21)">
  <rect x="-.981" y="1013.42" width="36.667" height="27.668" style="fill-opacity:.666667"/>
  <rect x="-.981" y="1012.59" width="36.667" height="27.668" style="fill:url(#_Linear1)"/>
  <path d="m17.353 1030.35c0.783 0 1.428-0.64 1.428-1.43s-0.643-1.42-1.428-1.42c-0.784 0-1.429 0.64-1.429 1.42 0 0.79 0.645 1.43 1.429 1.43m4.285-6.43c0.784 0 1.429 0.65 1.429 1.43v7.15c0 0.78-0.645 1.42-1.429 1.42h-8.571c-0.784 0-1.429-0.64-1.429-1.42v-7.15c0-0.79 0.643-1.43 1.429-1.43h0.714v-1.42c0-1.96 1.612-3.58 3.572-3.58 1.959 0 3.571 1.62 3.571 3.58v1.42h0.714zm-4.285-3.57c-1.176 0-2.143 0.97-2.143 2.15v1.42h4.285v-1.42c0-1.18-0.967-2.15-2.142-2.15z" style="fill-opacity:.847059;fill-rule:nonzero;fill:white"/>
 </g>
 <defs>
  <linearGradient id="_Linear1" x2="1" gradientTransform="matrix(1.74399e-15,-28.4815,28.4815,1.74399e-15,18.1859,1041.07)" gradientUnits="userSpaceOnUse">
   <stop style="stop-color:rgb(255,48,105)" offset="0"/>
   <stop style="stop-color:rgb(255,165,72)" offset="1"/>
  </linearGradient>
 </defs>
</svg>

<?xml version="1.0" encoding="UTF-8" standalone="no"?>
<!DOCTYPE svg PUBLIC "-//W3C//DTD SVG 1.1//EN" "http://www.w3.org/Graphics/SVG/1.1/DTD/svg11.dtd">
<svg width="100%" height="100%" viewBox="0 0 48 48" version="1.1" xmlns="http://www.w3.org/2000/svg" xmlns:xlink="http://www.w3.org/1999/xlink" xml:space="preserve" xmlns:serif="http://www.serif.com/" style="fill-rule:evenodd;clip-rule:evenodd;stroke-linejoin:round;stroke-miterlimit:1.41421;">
    <g transform="matrix(1.2,0,0,1.2,3.17686,-1208.21)">
        <rect x="-0.981" y="1013.42" width="36.667" height="27.668" style="fill-opacity:0.666667;"/>
        <rect x="-0.981" y="1012.59" width="36.667" height="27.668" style="fill:url(#_Linear1);"/>
        <g>
            <path d="M17.353,1030.35C18.136,1030.35 18.781,1029.71 18.781,1028.92C18.781,1028.13 18.138,1027.5 17.353,1027.5C17.353,1027.5 17.353,1027.5 17.353,1027.5C16.569,1027.5 15.924,1028.14 15.924,1028.92C15.924,1028.92 15.924,1028.92 15.924,1028.92C15.924,1029.71 16.569,1030.35 17.353,1030.35M21.638,1023.92C21.638,1023.92 21.638,1023.92 21.638,1023.92C22.422,1023.92 23.067,1024.57 23.067,1025.35L23.067,1032.5C23.067,1033.28 22.422,1033.92 21.638,1033.92C21.638,1033.92 21.638,1033.92 21.638,1033.92L13.067,1033.92C13.067,1033.92 13.067,1033.92 13.067,1033.92C12.283,1033.92 11.638,1033.28 11.638,1032.5C11.638,1032.5 11.638,1032.5 11.638,1032.5L11.638,1025.35C11.638,1024.56 12.281,1023.92 13.067,1023.92L13.781,1023.92L13.781,1022.5C13.781,1020.54 15.393,1018.92 17.353,1018.92C19.312,1018.92 20.924,1020.54 20.924,1022.5L20.924,1023.92L21.638,1023.92ZM17.353,1020.35C16.177,1020.35 15.21,1021.32 15.21,1022.5L15.21,1023.92L19.495,1023.92L19.495,1022.5C19.495,1021.32 18.528,1020.35 17.353,1020.35Z" style="fill:white;fill-opacity:0.847059;fill-rule:nonzero;"/>
        </g>
    </g>
    <defs>
        <linearGradient id="_Linear1" x1="0" y1="0" x2="1" y2="0" gradientUnits="userSpaceOnUse" gradientTransform="matrix(1.74399e-15,-28.4815,28.4815,1.74399e-15,18.1859,1041.07)"><stop offset="0" style="stop-color:rgb(255,48,105);stop-opacity:1"/><stop offset="1" style="stop-color:rgb(255,165,72);stop-opacity:1"/></linearGradient>
    </defs>
</svg>
